X:315
T:Chicken That Made the Soup, The
R:jig
D:Marcas \'O Murch\'u: \'O Bh\'eal go B\'eal
Z:id:hn-jig-315
M:6/8
K:G
gdB ceg|dBG A2F|~G3 GBd|g2a b2a|
gdB ceg|dBG A2A|GFG BAB|1 ~G3 G2g:|2 ~G3 G3||
gdd Bdd|gdd dBd|gdd dB/c/d|~g3 ~g2d|
g2d B2d|g2d B2G|AGA B2A|~G3 G3|
gdd Bdd|gdd dBd|gdd dB/c/d|~g3 b2a|
~g3 ~f3|efe def|gfg def|g2a b2a||

